!!!!SEGMENT: pl-wnifc--6576-n--001_nowakowski-jozef--dumka-jichaw-kozak-za-dunaj.krn
!!!cenid: 18xx:3961
!!!COM: Nowakowski, JÃ³zef
!!!COM-rismID: pe175316
!!!CDT: 1880/09/16-1865/08/27
!!!CNT: Polish
!!!OTL: Dumka/Jichaw kozak za dunaj
!!!PDT:
!!!AGN:
!!!SMS-siglum: PL-Wnifc
!!!SMS-shelfmark: 6576/n
!!!SMS-shelfwork: 001 W
!!!SMS-variant:
!!!SMS-altvar:
!!!NIFC-rismSourceID: 1001213395
!!!NIFC-rismChildID: 1001137573
!!!NIFC-islandoraID: nifc:212871
!!!URL-pdf-islandora: https://repozytorium.nifc.pl/islandora/object/nifc%3A212871/datastream/PDF/view
!!!URL-scan: https://polish.musicsources.pl/pl/lokalizacje/galeria/klocki-introligatorskie/686 @EN{Scan on Polish Music Sources Website} @PL{Skany w portalu Dziedzictwo Muzyki Polskiej w otwartym dostÄ™pie}
!!!IIIF:
!!!ONB-nifc: UWAGA: skany 2-6
!!!AIN: 2 piano
!!!key: a
**kern	**kern	**dynam
*part2	*part1	*part1
*staff2	*staff1	*
*I"Piano	*I"Piano	*
*I'pf	*I'pf	*
*Ipiano	*Ipiano	*
*ICklav	*ICklav	*
*clefF4	*clefG2	*
*k[]	*k[]	*
*a:	*a:	*
*M4/4	*M4/4	*
*met(c)	*met(c)	*
=1	=1	=1
*ped	*	*
!!LO:TX:t=P:problem:oznaczenia "ped" (ð†¯)i "Xped" (ð„Œ)
!	!LO:TX:a:B:t=Lento	!
!	!LO:TX:a:i:t=Jichaw Kozak za Dunaj kazaw diwczyno proszczaj,\nTy konyku woronyku na syÅ‚u hulaj,\nWyszÅ‚a ruczki zaÅ‚amawszy i tiaÅ¼enko zapÅ‚akawszy\nJak ty mene pokiedajesz no sam podumaj.	!
!	!LO:TX:a:B:t=DUMKA No 3.	!
4.AAA/ 4.AA	1r	.
8EEE/ 8EE	.	.
4.AAA/ 4.AA	.	.
*Xped	*	*
8EEE/ 8EE	.	.
=2	=2	=2
4AAA/ 4AA	1r	.
4CC/ 4C	.	.
4BBB/ 4BB	.	.
4AAA/ 4AA	.	.
=3	=3	=3
*ped	*	*
4.GGG#X^>/ 4.GG#X	1r	.
8EEE/ 8EE	.	.
4.GGG#/ 4.GG#	.	.
*Xped	*	*
8EEE^>/ 8EE	.	.
=4	=4	=4
4GGG#X/ 4GG#X	1r	.
4BBB/ 4BB	.	.
4AAA/ 4AA	.	.
4GGG#/ 4GG#	.	.
=5	=5	=5
*ped	*	*
!	!LO:TX:a:t=przez F. JaroÅ„skiego.	!
4.AAA^>/ 4.AA	1r	.
8EEE/ 8EE	.	.
4.AAA/ 4.AA	.	.
*Xped	*	*
8EEE^>/ 8EE	.	.
=6	=6	=6
8AAA/L 8AA	1r	.
8BBB/ 8BB	.	.
!LO:TX:a:i:t=energico	!	!
8CC/ 8C	.	.
8DD/ 8D	.	.
8EE/ 8E	.	.
16r	.	.
16CC/K 16C	.	.
8BBB/ 8BB	.	.
8AAA/J 8AA	.	.
!!LO:LB:g=original
=7	=7	=7
*ped	*	*
4GGG#X/ 4GG#X	1r	.
4BBB/ 4BB	.	.
4EE/ 4E	.	.
*Xped	*	*
4GGG#/ 4GG#	.	.
=8	=8	=8
*ped	*	*
2AAA/ 2AA	4r	.
.	4r	.
*Xped	*Xtuplet	*
4r	(40c\LLL	.
.	40e\	.
.	40a\	.
.	40cc\	.
.	40ee\	.
.	40aa\	.
.	40aa\	.
.	40cc\	.
.	40ee\	.
.	40aa\	.
4r	40ccc\	.
!	!LO:TX:b:i:t=presto	!
.	40eee\	.
.	40aaa\	.
.	40aaa\	.
.	40ccc\	.
.	40eee\	.
.	40aaa\	.
*	*8va	*
.	40cccc\	pp
.	40eeee\	.
.	40aaaa;\JJJ	.
*	*X8va	*
=9	=9	=9
*ped	*	*
*	*^	*
*	*	*^	*
4CC/ 4C	2cc^</)	4.cc\	4.ryy	sf
4r	.	.	.	.
.	.	8g/	8e\	.
4G:\ 4c: 4e:	2cc^</	4.cc\	4.ryy	.
*Xped	*	*	*	*
4r	.	.	.	.
.	.	8g/	8e\	.
*	*v	*v	*v	*
=10	=10	=10
*ped	*	*
4CC:/ 4C:	4e:\ 4g: 4cc:	.
4G:\ 4c: 4e:	4e:\ 4g: 4ee:	.
4G:\ 4c: 4e:	4e:\ 4g: 4dd:	.
*Xped	*	*
4G:\ 4c: 4e:	4e:\ 4g: 4cc:	.
=11	=11	=11
*ped	*	*
*	*^	*
*	*	*^	*
4GGG/ 4GG	2b/	4.b\	4.ryy	.
4r	.	.	.	.
.	.	8g/	8d\	.
4D:\ 4G: 4B:	2b/	4.b\	4.ryy	.
4r	.	.	.	.
.	.	8g/	8d\	.
*	*v	*v	*v	*
*Xped	*	*
!!LO:LB:g=original
=12	=12	=12
*ped	*	*
4GGG/ 4GG	4d:\ 4g: 4b:	.
4GG:\ 4D: 4G:	4d:\ 4b: 4dd:	.
4AA:\ 4C: 4A:	4c:\ 4a: 4cc:	.
*Xped	*	*
4E:\ 4B:	4d:\ 4e: 4g#X: 4b:	.
=13	=13	=13
*ped	*	*
*	*^	*
*	*	*^	*
4AAA/ 4AA	2a^</	4.a\	4.ryy	.
4r	.	.	.	.
.	.	8e/	8c\	.
4C:\ 4E: 4A:	2a^</	4.a\	4.ryy	.
4r	.	.	.	.
.	.	8e/	8c\	.
*	*v	*v	*v	*
*Xped	*	*
=14	=14	=14
*ped	*	*
4AAA/ 4AA	4c:\ 4e: 4a:	.
4C:\ 4E: 4A:	4c:\ 4e: 4cc:	.
4C:\ 4E: 4A:	4c:\ 4e: 4b:	.
*Xped	*	*
4C:\ 4E: 4A:	4c:\ 4e: 4a:	.
=15	=15	=15
*ped	*	*
4EE:/ 4E:	4B:/ 4d: 4e: 4g#X:	.
4E:\ 4G#X: 4B: 4d:	4e:\ 4g#: 4b:	.
4E:\ 4G#: 4B: 4d:	4e:\ 4g#: 4ee:	.
*Xped	*	*
4G#:\ 4B:	4d:\ 4e: 4g#:	.
=16	=16	=16
*ped	*	*
2A\	2c:/ 2e: 2a:	.
4AA\ 4C 4E	(32c\LLL	.
.	32e\	.
.	32a\	.
.	32cc\	.
.	32ee\	.
!	!LO:TX:b:i:t=presto	!
.	32aa\	.
.	32ccc\	.
.	32cc\	.
*Xped	*	*
4r	32ee\	.
.	32aa\	.
.	32ccc\	.
.	32eee\	pp
.	32aaa\	.
*	*8va	*
.	32cccc\	.
.	32eeee\	.
.	32aaaa\JJJ)	.
*	*X8va	*
!!LO:LB:g=original
*clefG2	*	*
=17	=17	=17
*ped	*	*
4e:\ 4g#X: 4b: 4dd:	4dd:\ 4ee: 4gg#X:	.
4e:\ 4g#: 4b: 4dd:	4ee:\ 4gg#: 4bb:	pp
4e:\ 4g#: 4b: 4dd:	4ee:\ 4gg#: 4eee:	.
*Xped	*	*
4g#:\ 4b:	4dd:\ 4ee: 4gg#:	.
=18	=18	=18
*ped	*	*
(2a/	2cc:\ 2ee: 2aa:	.
*Xped	*	*
4A\)	42cc\LLL	.
.	(42ee\	.
!	!LO:TX:b:i:t=presto	!
.	42aa\	.
.	42ccc\	.
.	42eee\	.
.	42aaa\	.
.	42cccc\	.
.	42aaa\	.
.	42eee\	.
.	42ccc\	pp
.	42aa\	.
4ryy	.	.
.	42ee\	.
.	42cc\	.
.	42a\	.
.	42e\	.
.	42c\	.
.	42e\	.
.	42a\	.
.	42cc\	.
.	84r	.
.	84b\K	.
.	42a\JJJ)	.
=19	=19	=19
1r	4g#X\	.
.	4b\	ppp
.	4ee'\	.
.	4r	.
=20	=20	=20
!	!LO:TX:a:i:t=molto rallen	!
1r	8d\L	.
.	8e\	.
.	8g#X\	.
.	8cc\J	.
.	8qcc/	.
.	4.cc^<\	.
.	8b\	.
!!LO:PB:g=original
*clefF4	*	*
=21	=21	=21
*	*^	*
*ped	*	*	*
!	!LO:TX:a:Bi:t=Andantino	!	!
!	!	!LO:TUP:a:problem:klamra Å‚ukowa	!
4AAA/ 4AA	4.a/	24rc	.
.	.	24A\LL 24c	.
.	.	24A\JJ 24c	.
.	.	8A\ 8c	.
*Xped	*	*	*
4r	.	4rc	.
.	8e/	.	.
*ped	*	*	*
!	!	!LO:TUP:a:problem:klamra Å‚ukowa	!
4C:\ 4E: 4A:	4.a/	24rc	.
.	.	24A\LL 24c	.
.	.	24A\JJ 24c	.
.	.	8A\ 8c	.
4r	.	4rc	.
.	8e/	.	.
*Xped	*	*	*
=22	=22	=22	=22
*ped	*	*	*
4AAA/ 4AA	4a/	8rc	.
.	.	8c\ 8e	.
*Xped	*	*	*
4r	4cc/	8rc	.
.	.	8c\ 8e	.
*ped	*	*	*
4C:\ 4E: 4A:	4b/	8rc	.
.	.	8c\ 8e	.
4r	4a/	8rc	.
.	.	8c\ 8e	.
*Xped	*	*	*
=23	=23	=23	=23
*ped	*	*	*
!	!	!LO:TUP:a:problem:klamra Å‚ukowa	!
4EE/ 4E	4.g#X/	24rc	.
.	.	24G#X\LL 24B	.
.	.	24G#\JJ 24B	.
.	.	8G#\ 8B	.
*Xped	*	*	*
4r	.	4rc	.
.	8e/	.	.
*ped	*	*	*
!	!	!LO:TUP:a:problem:klamra Å‚ukowa	!
4BB:\ 4E: 4G#X:	4.g#/	24rc	.
.	.	24G#\LL 24B	.
.	.	24G#\JJ 24B	.
.	.	8G#\ 8B	.
4r	.	4rc	.
.	8e/	.	.
*Xped	*	*	*
!!LO:LB:g=original
=24	=24	=24	=24
*ped	*	*	*
4EE/ 4E	4g#X/	8rc	.
.	.	8B\ 8e	.
*Xped	*	*	*
4r	4b/	8rc	.
.	.	8B\ 8e	.
*ped	*	*	*
4BB:\ 4E: 4G#X:	4a/	8rc	.
.	.	8B\ 8e	.
4r	4g#/	8rc	.
.	.	8B\ 8e	.
*Xped	*	*	*
=25	=25	=25	=25
*ped	*	*	*
!	!	!LO:TUP:a:problem:klamra Å‚ukowa	!
4AAA/ 4AA	4.a/	24rc	.
.	.	24A\LL 24c	.
.	.	24A\JJ 24c	.
.	.	8A\ 8c	.
*Xped	*	*	*
4r	.	4rc	.
.	8e/	.	.
*ped	*	*	*
!	!	!LO:TUP:a:problem:klamra Å‚ukowa	!
4C:\ 4E: 4A:	4.a/	24rc	.
.	.	24A\LL 24c	.
.	.	24A\JJ 24c	.
.	.	8A\ 8c	.
4r	.	4rc	.
.	8e/	.	.
*Xped	*	*	*
=26	=26	=26	=26
*ped	*	*	*
4AAA/ 4AA	4a/	8rc	.
.	.	8c\ 8e	.
*Xped	*	*	*
4r	4cc/	8rc	.
.	.	8c\ 8e	.
*ped	*	*	*
4C:\ 4E: 4A:	4b/	8rc	.
.	.	8c\ 8e	.
4r	4a/	8rc	.
.	.	8c\ 8e	.
*Xped	*	*	*
!!LO:LB:g=original
=27	=27	=27	=27
*ped	*	*	*
!	!	!LO:TUP:a:problem:klamra Å‚ukowa	!
4EE/ 4E	4.g#X/	24rc	.
.	.	24B\LL 24e	.
.	.	24B\JJ 24e	.
.	.	8B\ 8e	.
*Xped	*	*	*
4r	.	4rc	.
.	8b/	.	.
*ped	*	*	*
4BB:\ 4E: 4G#X:	4ee/	8rc	.
.	.	8e\ 8g#	.
4r	4g#/	8rc	.
.	.	8B\ 8d	.
*Xped	*	*	*
=28	=28	=28	=28
*ped	*	*	*
2AAA/ 2AA	2a/	(>8rc	.
.	.	16A\LL 16c	.
.	.	16A\JJ) 16c	.
.	.	8A\L 8c	.
!	!LO:TX:b:i:t=rallen&colon;	!	!
.	.	8A\ 8c	.
4ryy	2ryy	8c\ 8e	.
.	.	8c\ 8e	.
4r	.	8c\ 8e	.
.	.	8c\J 8e	.
*Xped	*	*	*
=29	=29	=29	=29
*ped	*	*	*
!	!LO:TX:a:i:t=a tempo	!	!
!	!	!LO:TUP:a:problem:klamra Å‚ukowa	!
4CC/ 4C	4.cc/	24rc	.
.	.	24c\LL 24e	.
.	.	24c\JJ 24e	.
.	.	8c\ 8e	.
*Xped	*	*	*
4r	.	4rc	.
.	8g/	.	.
*ped	*	*	*
!	!	!LO:TUP:a:problem:klamra Å‚ukowa	!
4G:\ 4c: 4e:	4.cc/	24rc	.
.	.	24c\LL 24e	.
.	.	24c\JJ 24e	.
.	.	8c\ 8e	.
4r	.	4rc	.
.	8g/	.	.
*Xped	*	*	*
!!LO:LB:g=original
=30	=30	=30	=30
*ped	*	*	*
4CC/ 4C	4cc/	8rc	.
.	.	8e\ 8g	.
*Xped	*	*	*
4r	4ee/	8rc	.
.	.	8e\ 8g	.
*ped	*	*	*
4G:\ 4c: 4e:	4dd/	8rc	.
.	.	8e\ 8g	.
4r	4cc/	8rc	.
.	.	8e\ 8g	.
*Xped	*	*	*
=31	=31	=31	=31
*ped	*	*	*
!	!	!LO:TUP:a:problem:klamra Å‚ukowa	!
4GGG/ 4GG	4.b/	24rc	.
.	.	24B\LL 24d	.
.	.	24B\JJ 24d	.
.	.	8B\ 8d	.
*Xped	*	*	*
4r	.	4rc	.
.	8g/	.	.
*ped	*	*	*
!	!	!LO:TUP:a:problem:klamra Å‚ukowa	!
4D:\ 4G: 4B:	4.b/	24rc	.
.	.	24B\LL 24d	.
.	.	24B\JJ 24d	.
.	.	8B\ 8d	.
4r	.	4rc	.
.	8g/	.	.
*Xped	*	*	*
=32	=32	=32	=32
*ped	*	*	*
4GGG/ 4GG	4b/	8rc	.
.	.	8d\ 8g	.
*Xped	*	*	*
4r	4dd/	8rc	.
.	.	8d\ 8g	.
*ped	*	*	*
4AAA/ 4AA	4cc/	8rc	.
.	.	8c\ 8e	.
4EE/ 4E	4b/	8rc	.
.	.	8d\ 8e 8g#X	.
*Xped	*	*	*
!!LO:LB:g=original
=33	=33	=33	=33
*ped	*	*	*
!	!	!LO:TUP:a:problem:klamra Å‚ukowa	!
4AAA/ 4AA	4.a/	24rc	.
.	.	24A\LL 24c	.
.	.	24A\JJ 24c	.
.	.	8A\ 8c	.
*Xped	*	*	*
4r	.	4rc	.
.	8e/	.	.
*ped	*	*	*
!	!	!LO:TUP:a:problem:klamra Å‚ukowa	!
4C:\ 4E: 4A:	4.a/	24rc	.
.	.	24A\LL 24c	.
.	.	24A\JJ 24c	.
.	.	8A\ 8c	.
4r	.	4rc	.
.	8e/	.	.
*Xped	*	*	*
=34	=34	=34	=34
*ped	*	*	*
4AAA/ 4AA	4a/	8rc	.
.	.	8c\ 8e	.
*Xped	*	*	*
4r	4cc/	8rc	.
.	.	8c\ 8e	.
*ped	*	*	*
4C:\ 4E: 4A:	4b/	8rc	.
.	.	8c\ 8e	.
4r	4a/	8rc	.
.	.	8c\ 8e	.
*Xped	*	*	*
=35	=35	=35	=35
*ped	*	*	*
!	!	!LO:TUP:a:problem:klamra Å‚ukowa	!
4EE/ 4E	4.g#X/	24rc	.
.	.	24G#X\LL 24B	.
.	.	24G#\JJ 24B	.
.	.	8G#\ 8B	.
*Xped	*	*	*
4r	.	4rc	.
.	8ee/	.	.
*ped	*	*	*
4BB:\ 4E: 4G#X:	4ee/	8rc	.
.	.	8e\ 8g#X	.
4r	4g#/	8rc	.
.	.	8B\ 8d	.
*Xped	*	*	*
!!LO:PB:g=original
=36	=36	=36	=36
*ped	*	*	*
2AAA/ 2AA	2a/	(>8rc	.
.	.	16A\LL 16c	.
.	.	16A\JJ) 16c	.
.	.	8A\L 8c	.
.	.	8A\J 8c	.
!	!LO:TX:b:i:t=rallen	!	!
4r	2ryy	8c\L 8e	.
.	.	8c\ 8e	.
4r	.	8c\ 8e	.
.	.	8c\J 8e	.
*Xped	*	*	*
=37	=37	=37	=37
*ped	*	*	*
!	!LO:TX:a:i:t=energico	!	!
!	!	!LO:TUP:a:problem:klamra Å‚ukowa	!
8CC/ 8C	4.cc/	24rc	.
.	.	24c\LL 24e	.
.	.	24c\JJ 24e	.
8r	.	8c\ 8e	.
*Xped	*	*	*
4EE^/ 4E	.	4rc	.
.	8g/	.	.
*ped	*	*	*
!	!	!LO:TUP:a:problem:klamra Å‚ukowa	!
8GG'/ 8G	4.cc/	24rc	.
.	.	24c\LL 24e	.
.	.	24c\JJ 24e	.
8r	.	8c\ 8e	.
4C^<\ 4c	.	4rc	.
.	8g/	.	.
*Xped	*	*	*
=38	=38	=38	=38
*ped	*	*	*
4CC^^</ 4C	4cc/	8rc	.
.	.	8e\ 8g	.
*Xped	*	*	*
4EE^^</ 4E	4ee/	8rc	.
.	.	8e\ 8g	.
*ped	*	*	*
4GG^^</ 4G	4dd/	8rc	.
.	.	8e\ 8g	.
4C^^</ 4c	4cc/	8rc	.
.	.	8e\ 8g	.
*Xped	*	*	*
!!LO:LB:g=original
=39	=39	=39	=39
*ped	*	*	*
!	!	!LO:TUP:a:problem:klamra Å‚ukowa	!
8GGG/ 8GG	4.b/	24rc	.
.	.	24B\LL 24d	.
.	.	24B\JJ 24d	.
8r	.	8B\ 8d	.
*Xped	*	*	*
4BBB^^</ 4BB	.	4rc	.
.	8g/	.	.
*ped	*	*	*
!	!	!LO:TUP:a:problem:klamra Å‚ukowa	!
8DD'/ 8D	4.b/	24rc	.
.	.	24B\LL 24d	.
.	.	24B\JJ 24d	.
8r	.	8B\ 8d	.
4GG^^</ 4G	.	4rc	.
.	8g/	.	.
*Xped	*	*	*
=40	=40	=40	=40
*ped	*	*	*
4GGG^^</ 4GG	4b/	8rc	.
.	.	8d\ 8g	.
*Xped	*	*	*
4BBB^^</ 4BB	4dd/	8rc	.
.	.	8d\ 8g	.
*ped	*	*	*
4AAA^^</ 4AA	4cc/	8rc	.
.	.	8c\ 8e	.
4EE^^</ 4E	4b/	8rc	.
.	.	8d\ 8e 8g#X	.
*Xped	*	*	*
=41	=41	=41	=41
*ped	*	*	*
!	!	!LO:TUP:a:problem:klamra Å‚ukowa	!
8AAA'/ 8AA	4.a/	24rc	.
.	.	24A\LL 24c	.
.	.	24A\JJ 24c	.
8r	.	8A\ 8c	.
*Xped	*	*	*
4CC^^</ 4C	.	4rc	.
.	8e/	.	.
*ped	*	*	*
!	!	!LO:TUP:a:problem:klamra Å‚ukowa	!
8EE'/ 8E	4.a/	24rc	.
.	.	24A\LL 24c	.
.	.	24A\JJ 24c	.
8r	.	8A\ 8c	.
4AA^^\ 4A	.	4rc	.
.	8e/	.	.
*Xped	*	*	*
!!LO:LB:g=original
=42	=42	=42	=42
*ped	*	*	*
4AAA^^</ 4AA	4a/	8rc	.
.	.	8c\ 8e	.
*Xped	*	*	*
4CC^^</ 4C	4cc/	8rc	.
.	.	8c\ 8e	.
*ped	*	*	*
4EE^^</ 4E	4b/	8rc	.
.	.	8c\ 8e	.
4AA^^\ 4A	4a/	8rc	.
.	.	8c\ 8e	.
*Xped	*	*	*
=43	=43	=43	=43
*ped	*	*	*
!	!	!LO:TUP:a:problem:klamra Å‚ukowa	!
8EEE/ 8EE	4.g#X/	24rc	.
.	.	24G#X\LL 24B	.
.	.	24G#\JJ 24B	.
8r	.	8G#\ 8B	.
*Xped	*	*	*
!	!	!LO:N:vis=8	!
4GGG#X/ 4GG#X	.	4rc	.
.	8ee'/	.	.
*ped	*	*	*
4BBB/ 4BB	4ee/	8rc	.
.	.	8e\ 8g#X	.
4EE/ 4E	4g#/	8rc	.
.	.	8B\ 8d	.
*Xped	*	*	*
=44	=44	=44	=44
*ped	*	*	*
2AAA/ 2AA	2a/	(>8rc	.
.	.	16A\LL 16c	.
.	.	16A\JJ) 16c	.
.	.	8A\L 8c	.
.	.	8A\J 8c	.
!	!LO:TX:b:i:t=rallen	!	!
4r	2ryy	8c\L 8e	.
.	.	8c\ 8e	.
4r	.	8c\ 8e	.
.	.	8c\J 8e	.
*Xped	*	*	*
!!LO:LB:g=original
=45	=45	=45	=45
*ped	*	*	*
1AAA: 1CC: 1EE: 1C:	(16a/LL	4.a\	.
.	16e/	.	.
!	!LO:TX:b:i:t=molto marcato la melodia	!	!
.	16d#X/	.	.
.	16e/	.	.
.	16a/	.	.
.	16cc/	.	.
.	16ee/	8e\	.
.	16dd#X/	.	.
.	16ee/	4.a\	pp
.	16aa/	.	.
.	16ccc/	.	.
.	16eee/	.	.
.	16ddd/	.	.
.	16eee/	.	.
.	16aaa/	8e\	.
.	16cccc/JJ)	.	.
*	*v	*v	*
*Xped	*	*
=46	=46	=46
*ped	*8va	*
*	*^	*
1A: 1c: 1e:	(16cccc/LL	4aa:\	.
.	16eeee/	.	.
.	16dddd/	.	.
.	16cccc/	.	.
.	16bbb/	4ccc\	.
*	*X8va	*	*
.	16aa/	.	.
!	!LO:TX:a:i:t=loco	!	!
.	16ggg#X/	.	.
.	16fff/	.	.
.	16eee/	4b\	.
!	!	!	!LO:DY:a
.	16ddd/	.	pp
.	16ccc/	.	.
.	16bb/	.	.
.	16aa/	4a\	.
.	16gg/	.	.
.	16ff/)	.	.
.	16ee/JJ	.	.
*Xped	*	*	*
=47	=47	=47	=47
*ped	*	*	*
1EE: 1GG#X: 1BB: 1G#X:	(16g#X/LL	4.g#\	.
.	16e/	.	.
.	16d#X/	.	.
.	16e/	.	.
.	16g#/	.	.
.	16b/	.	.
!	!	!	!LO:DY:a
.	16ee/	8e\	pp
.	16dd/	.	.
.	16ee/	4.g#\	.
.	16gg/	.	.
.	16bb/	.	.
.	16eee/	.	.
.	16ddd/	.	.
.	16eee/	.	.
.	16ggg/)	8e\	.
.	16bbb/JJ	.	.
*	*v	*v	*
*Xped	*	*
!!LO:LB:g=original
=48	=48	=48
*ped	*8va	*
*	*^	*
1E: 1G#X: 1B:	(16bbb/LL	4gg#X\	.
.	16eeee/	.	.
.	16dddd/	.	.
.	16cccc/	.	.
.	16bbb/	4bb\	.
.	16aaa/	.	.
*	*X8va	*	*
!	!LO:TX:a:i:t=loco	!	!
.	16ggg#X/	.	.
.	16fff/	.	.
!	!	!	!LO:DY:a
.	16eee/	4a\	pp
.	16ddd/	.	.
.	16ccc/	.	.
.	16bb/	.	.
.	16aa/	4g#X\	.
.	16gg#/	.	.
.	16ff/	.	.
.	16ee/JJ)	.	.
*Xped	*	*	*
=49	=49	=49	=49
*ped	*	*	*
1AAA: 1CC: 1EE: 1C:	(16a/LL	4.a\	.
.	16e/	.	.
.	16d#X/	.	.
.	16e/	.	.
.	16a/	.	.
.	16cc/	.	.
.	16ee/	8e\	.
.	16dd#X/	.	.
!	!	!	!LO:DY:a
.	16ee/	4.a\	pp
.	16aa/	.	.
.	16ccc/	.	.
.	16eee/	.	.
.	16ddd/	.	.
.	16eee/	.	.
.	16aaa/	8e\	.
.	16cccc/JJ)	.	.
*	*v	*v	*
*Xped	*	*
=50	=50	=50
*ped	*8va	*
*	*^	*
1A: 1c: 1e:	(16cccc/LL	4aa\	.
.	16eeee/	.	.
.	16dddd/	.	.
.	16cccc/	.	.
.	16bbb/	4ccc\	.
.	16aaa/	.	.
*	*X8va	*	*
!	!LO:TX:a:i:t=loco	!	!
.	16ggg#X/	.	.
.	16fff/	.	.
.	16eee/	4b\	.
!	!	!	!LO:DY:a
.	16ddd/	.	pp
.	16ccc/	.	.
.	16bb/	.	.
.	16aa/	4a\	.
.	16gg/	.	.
.	16ff/)	.	.
.	16ee/JJ	.	.
*Xped	*	*	*
!!LO:PB:g=original
=51	=51	=51	=51
*ped	*	*	*
1EE: 1GG#X: 1BB: 1G#X:	(16g#X/LL	4g#\	.
.	16e/	.	.
.	16g#/	.	.
.	16b/	.	.
.	16ee/	4b\	.
.	16ee/	.	.
.	16gg/	.	.
.	16bb/	.	.
.	16eee/	4ee\	.
.	16eee/	.	.
.	16ggg/	.	.
.	16eeee/	.	.
.	16ggg/	4g#\	.
.	16eee/	.	.
.	16eee/)	.	.
.	16gg/JJ	.	.
*Xped	*	*	*
=52	=52	=52	=52
*ped	*	*	*
4r	(16aa/LL	1a	.
.	16gg#X/	.	.
.	16aa/	.	.
.	16ccc/	.	.
4A\ 4c 4e	16bb/	.	.
.	16aa/	.	.
!	!	!	!LO:DY:a
.	16ggn/	.	pp
!	!LO:TX:b:i:t=rallen	!	!
.	16ff/	.	.
4r	16ee/	.	.
.	16dd/	.	.
.	16cc/	.	.
.	16b/	.	.
4r	16a/	.	.
.	16g#X/)	.	.
.	16a/	.	.
.	16b/JJ	.	.
*Xped	*	*	*
=53	=53	=53	=53
*ped	*	*	*
1CC: 1EE: 1GG: 1E:	(16cc/LL	4.cc\	.
!	!LO:TX:b:i:t=a tempo	!	!
.	16g/	.	.
.	16f#X/	.	.
.	16g/	.	.
.	16cc/	.	.
.	16ee/	.	.
!	!	!	!LO:DY:a
.	16gg/	8g\	pp
.	16ff/	.	.
.	16gg/	4.cc\	.
.	16ccc/	.	.
.	16eee/	.	.
.	16ggg/	.	.
.	16fff/	.	.
.	16ggg/	.	.
*	*v	*v	*
*	*8va	*
*	*^	*
.	16cccc/)	8gg\	.
.	16eeee/JJ	.	.
*Xped	*	*	*
!!LO:LB:g=original
=54	=54	=54	=54
*ped	*	*	*
1c 1e 1g	(16cccc/LL	4ccc\	.
.	16eeee/	.	.
.	16ffff/	.	.
.	16eeee/	.	.
.	16dddd/	4eee\	.
.	16cccc/	.	.
.	16bbb/	.	.
.	16aaa/	.	.
*	*v	*v	*
*	*X8va	*
*	*^	*
!	!LO:TX:a:i:t=loco	!	!
.	16ggg/	4dd\	.
.	16fff/	.	.
.	16eee/	.	.
!	!	!	!LO:DY:a
.	16ddd/	.	pp
.	16ccc/	4cc\	.
.	16bb/	.	.
.	16aa/	.	.
.	16gg/JJ)	.	.
*Xped	*	*	*
=55	=55	=55	=55
*ped	*	*	*
1GGG: 1BBB: 1DD: 1BB:	(16b/LL	4.b\	.
.	16g/	.	.
.	16f#X/	.	.
.	16g/	.	.
.	16b/	.	.
.	16dd/	.	.
!	!	!	!LO:DY:a
.	16gg/	8g\	pp
.	16ff/	.	.
.	16gg/	4.b\	.
.	16bb/	.	.
.	16ddd/	.	.
.	16ggg/	.	.
.	16fff/	.	.
.	16ggg/	.	.
*	*v	*v	*
*	*8va	*
*	*^	*
.	16bbb/	8gg\	.
.	16dddd/JJ)	.	.
*Xped	*	*	*
=56	=56	=56	=56
*ped	*	*	*
1B 1d 1g	(16bbb/LL	4bb\	.
.	16ffff/	.	.
.	16eeee/	.	.
.	16dddd/	.	.
.	16cccc/	4ddd\	.
.	16bbb/	.	.
.	16aaa/	.	.
*	*X8va	*	*
!	!LO:TX:a:i:t=loco	!	!
.	16ggg/	.	.
.	16fff/	4cc\	.
!	!	!	!LO:DY:a
.	16eee/	.	pp
.	16ddd/	.	.
.	16ccc/	.	.
.	16bb/	4b\	.
.	16aa/	.	.
.	16gg#X/)	.	.
.	16bb/JJ	.	.
*Xped	*	*	*
!!LO:LB:g=original
=57	=57	=57	=57
*ped	*	*	*
1AAA: 1CC: 1EE: 1C:	(16a/LL	4.a\	.
.	16e/	.	.
.	16d#X/	.	.
.	16e/	.	.
.	16a/	.	.
.	16cc/	.	.
.	16ee/	8e\	.
!	!	!	!LO:DY:a
.	16dd/	.	pp
.	16ee/	4.a\	.
.	16aa/	.	.
.	16ccc/	.	.
.	16eee/	.	.
.	16ddd/	.	.
.	16eee/	.	.
.	16aaa/)	8e\	.
.	16cccc/JJ	.	.
*	*v	*v	*
*Xped	*	*
=58	=58	=58
*ped	*8va	*
*	*^	*
1A 1c 1e	16aaa/LL	4aa\	.
.	(16eeee/	.	.
.	16dddd/	.	.
.	16cccc/	.	.
.	16bbb/	4ccc\	.
.	16aaa/	.	.
*	*X8va	*	*
!	!LO:TX:a:i:t=loco	!	!
.	16ggg#X/	.	.
.	16fff/	.	.
.	16eee/	4b\	.
.	16ddd/	.	.
.	16ccc/	.	.
.	16bb/	.	.
.	16aa/	4a\	.
.	16gg/	.	.
.	16ff/)	.	.
.	16ee/JJ	.	.
*Xped	*	*	*
=59	=59	=59	=59
*ped	*	*	*
1EE: 1GG#X: 1BB: 1G#X:	(16g#X/LL	4g#\	.
.	16e/	.	.
.	16g#/	.	.
.	16b/	.	.
.	16ee/	4b\	.
.	16ee/	.	.
!	!	!	!LO:DY:a
.	16gg/	.	pp
.	16bb/	.	.
.	16eee/	4ee\	.
.	16eee/	.	.
.	16ggg/	.	.
.	16eeee/	.	.
.	16ggg/	4g#\	.
.	16eee/	.	.
.	16eee/)	.	.
.	16gg/JJ	.	.
*Xped	*	*	*
!!LO:LB:g=original
=60	=60	=60	=60
*ped	*	*	*
4r	(16aa/LL	1a	.
.	16gg#X/	.	.
.	16aa/	.	.
.	16ccc/	.	.
4A\ 4c 4e	16bb/	.	.
.	16aa/	.	.
!	!	!	!LO:DY:a
.	16ggn/	.	pp
!	!LO:TX:b:i:t=rallen	!	!
.	16ff/	.	.
4r	16ee/	.	.
.	16dd/	.	.
.	16cc/	.	.
.	16b/	.	.
4r	16a/	.	.
.	16g#X/)	.	.
.	16a/	.	.
.	16b/JJ	.	.
*Xped	*	*	*
=61	=61	=61	=61
*ped	*	*	*
1CC: 1EE: 1GG: 1E:	(16cc/LL	4.cc\	.
!	!LO:TX:b:i:t=a tempo	!	!
.	16g/	.	.
.	16f#X/	.	.
.	16g/	.	.
.	16cc/	.	.
.	16ee/	.	.
!	!	!	!LO:DY:a
.	16gg/	8g\	pp
.	16ff/	.	.
.	16gg/	4.cc\	.
.	16ccc/	.	.
.	16eee/	.	.
.	16ggg/	.	.
.	16fff/	.	.
.	16ggg/	.	.
*	*v	*v	*
*	*8va	*
*	*^	*
.	16cccc/)	8gg\	.
.	16eeee/JJ	.	.
*Xped	*	*	*
=62	=62	=62	=62
*ped	*	*	*
1c: 1e: 1g:	(16cccc/LL	4ccc\	.
.	16eeee/	.	.
.	16ffff/	.	.
.	16eeee/	.	.
.	16dddd/	4eee\	.
.	16cccc/	.	.
.	16bbb/	.	.
.	16aaa/	.	.
*	*v	*v	*
*	*X8va	*
*	*^	*
!	!LO:TX:a:i:t=loco	!	!
.	16ggg/	4dd\	.
.	16fff/	.	.
.	16eee/	.	.
!	!	!	!LO:DY:a
.	16ddd/	.	pp
.	16ccc/	4cc\	.
.	16bb/	.	.
.	16aa/	.	.
.	16gg/JJ)	.	.
*Xped	*	*	*
!!LO:LB:g=original
=63	=63	=63	=63
*ped	*	*	*
1GGG: 1BBB: 1DD: 1BB:	(16b/LL	4.b\	.
.	16g/	.	.
.	16f#X/	.	.
.	16g/	.	.
!	!	!	!LO:DY:a
.	16b/	.	pp
.	16dd/	.	.
.	16gg/	8g\	.
.	16ff/	.	.
.	16gg/	4.b\	.
.	16bb/	.	.
.	16ddd/	.	.
.	16ggg/	.	.
.	16fff/	.	.
.	16ggg/	.	.
*	*v	*v	*
*	*8va	*
*	*^	*
.	16bbb/	8gg\	.
.	16dddd/JJ)	.	.
*Xped	*	*	*
=64	=64	=64	=64
*ped	*	*	*
1B: 1d: 1g:	(16bbb/LL	4bb\	.
.	16ffff/	.	.
.	16eeee/	.	.
.	16dddd/	.	.
.	16cccc/	4ddd\	.
.	16bbb/	.	.
.	16aaa/	.	.
*	*X8va	*	*
!	!LO:TX:a:i:t=loco	!	!
.	16ggg/	.	.
.	16fff/	4cc\	.
.	16eee/	.	.
.	16ddd/	.	.
.	16ccc/	.	.
.	16bb/	4b\	.
.	16aa/	.	.
!	!	!	!LO:DY:a
.	16gg#X/)	.	pp
.	16bb/JJ	.	.
*Xped	*	*	*
=65	=65	=65	=65
*ped	*	*	*
1AAA: 1CC: 1EE: 1C:	(16a/LL	4.a\	.
.	16e/	.	.
.	16d#X/	.	.
.	16e/	.	.
.	16a/	.	.
.	16cc/	.	.
.	16ee/	8e\	.
!	!	!	!LO:DY:a
.	16dd/	.	pp
.	16ee/	4.a\	.
.	16aa/	.	.
.	16ccc/	.	.
.	16eee/	.	.
.	16ddd/	.	.
.	16eee/	.	.
.	16aaa/)	8e\	.
.	16cccc/JJ	.	.
*	*v	*v	*
*Xped	*	*
=66	=66	=66
*ped	*8va	*
*	*^	*
1A: 1c: 1e:	16aaa/LL	4aa:\	.
.	(16eeee/	.	.
.	16dddd/	.	.
.	16cccc/	.	.
.	16bbb/	4ccc\	.
.	16aaa/	.	.
*	*X8va	*	*
!	!LO:TX:a:i:t=loco	!	!
.	16ggg#X/	.	.
.	16fff/	.	.
.	16eee/	4b\	.
.	16ddd/	.	.
!	!	!	!LO:DY:a
.	16ccc/	.	pp
.	16bb/	.	.
.	16aa/	4a\	.
.	16gg/	.	.
.	16ff/)	.	.
.	16ee/JJ	.	.
*Xped	*	*	*
!!LO:PB:g=original
=67	=67	=67	=67
1EE: 1GG#X: 1BB: 1G#X:	(16g#X/LL	4g#\	.
.	16e/	.	.
.	16g#/	.	.
.	16b/	.	.
.	16ee/	4b\	.
.	16ee/	.	.
!	!	!	!LO:DY:a
.	16gg#X/	.	pp
.	16bb/	.	.
.	16eee/	4ee\	.
.	16eee/	.	.
.	16ggg#X/	.	.
.	16eeee/	.	.
.	16ggg#/	4g#\	.
.	16eee/	.	.
.	16eee/)	.	.
.	16gg#/JJ	.	.
=68	=68	=68	=68
*ped	*	*	*
4r	2aa\	2a\ 2aa	.
4A^^\	.	.	.
*	*Xtuplet	*	*
2ryy	54a\L	2ryy	.
.	54a#X\	.	.
.	54b\	.	.
.	54b#X\	.	.
.	54cc#X\	.	.
.	54dd\	.	.
.	54dd#X\	.	.
!	!LO:TX:b:i:t=presto	!	!
.	54ee\	.	.
.	54ee#X\	.	.
.	54ff#X\	.	.
.	54gg\	.	.
.	54gg#X\	.	.
.	54aan\	.	.
.	54aa#X\	.	.
.	54bbn\	.	.
.	54bb#X\	.	.
.	54ccc\	.	.
.	54dddn\	.	.
.	54ddd#X\	.	.
.	54eeen\	.	.
.	54eee#X\	.	.
.	54fff\	.	.
.	54gggn\	.	.
.	54ggg#X\	.	.
.	54aaan\	.	.
.	54bbbn;\	.	.
.	54aaa\J	.	.
*	*v	*v	*
*Xped	*	*
!!LO:LB:g=original
=69	=69	=69
*ped	*8va	*
*	*^	*
8AAA/ 8AA	4aaa/	16aaa\LL	.
.	.	16aa\	.
16r	.	16gg#X\	.
*clefG2	*	*	*
16e\ 16a 16cc	.	16aa\	.
8.e\L 8.a 8.cc	4eee/	16eee\	.
.	.	16aa\	.
.	.	16gg#\	.
16e\Jk 16a 16cc	.	16aa\	.
2a^^\ 2cc 2ee	4aaa/	16aaa\	.
.	.	16aa\	.
.	.	16gg#\	.
.	.	16aa\	.
.	4eee/	16eee\	.
.	.	16aa\	.
.	.	16gg#\	.
.	.	16aa\JJ	.
*Xped	*	*	*
*clefF4	*	*	*
=70	=70	=70	=70
*ped	*	*	*
8AA\ 8A	4aaa/	16aaa\LL	.
.	.	16eee\	.
16r	.	16ddd#X\	.
*clefG2	*	*	*
16e\ 16a 16cc	.	16eee\	.
8.e\L 8.a 8.cc	4cccc/	16cccc\	.
.	.	16eee\	.
.	.	16ddd#\	.
16e\Jk 16a 16cc	.	16eee\	.
2a^^\ 2cc 2ee	4bbb/	16bbb\	.
.	.	16eee\	.
.	.	16ddd#\	.
.	.	16eee\	.
.	4aaa/	16aaa\	.
.	.	16eee\	.
.	.	16ddd#\	.
.	.	16eee\JJ	.
*Xped	*	*	*
*clefF4	*	*	*
=71	=71	=71	=71
*ped	*	*	*
8EE/ 8E	4ggg#X/	16ggg#\LL	.
.	.	16bb\	.
*clefG2	*	*	*
16r	.	16aa#X\	.
16e\ 16g#X 16b	.	16bb\	.
8.e\L 8.g# 8.b	4eee/	16eee\	.
.	.	16bb\	.
.	.	16aa#\	.
16e\Jk 16g# 16b	.	16bb\	.
2g#^^\ 2b 2ee	4ggg#/	16ggg#\	.
.	.	16bb\	.
.	.	16aa#\	.
.	.	16bb\	.
.	4eee/	16eee\	.
.	.	16bb\	.
.	.	16aa#\	.
.	.	16bb\JJ	.
*Xped	*	*	*
*clefF4	*	*	*
!!LO:LB:g=original
=72	=72	=72	=72
*ped	*	*	*
8EE/ 8E	4ggg#X/	16ggg#\LL	.
.	.	16bb\	.
*clefG2	*	*	*
16r	.	16aa#X\	.
16e\ 16g#X 16b	.	16bb\	.
8.e\L 8.g# 8.b	4bbb/	16bbb\	.
.	.	16bb\	.
.	.	16aa#\	.
16e\Jk 16g# 16b	.	16bb\	.
2g#^^\ 2b 2ee	4aaa/	16aaa\	.
.	.	16bb\	.
.	.	16aa#\	.
.	.	16bb\	.
.	4ggg#/	16ggg#\	.
.	.	16bb\	.
.	.	16aa#\	.
.	.	16bb\JJ	.
*Xped	*	*	*
*clefF4	*	*	*
=73	=73	=73	=73
*ped	*	*	*
!LO:N:vis=16	!	!	!
8AAA/ 8AA	4aaa/	16aaa\LL	.
.	.	16aa\	.
*clefG2	*	*	*
16r	.	16gg#X\	.
16e\ 16a 16cc	.	16aa\	.
8.e\L 8.a 8.cc	4eee/	16eee\	.
.	.	16aa\	.
.	.	16gg#\	.
16e\Jk 16a 16cc	.	16aa\	.
2a^^\ 2cc 2ee	4aaa/	16aaa\	.
.	.	16aa\	.
.	.	16gg#\	.
.	.	16aa\	.
.	4eee/	16eee\	.
.	.	16aa\	.
.	.	16gg#\	.
.	.	16aa\JJ	.
*Xped	*	*	*
*clefF4	*	*	*
=74	=74	=74	=74
*ped	*	*	*
!LO:N:vis=16	!	!	!
8AA\ 8A	4aaa/	16aaa\LL	.
.	.	16eee\	.
*clefG2	*	*	*
16r	.	16ddd#X\	.
16e\ 16a 16cc	.	16eee\	.
8.e\L 8.a 8.cc	4cccc/	16cccc\	.
.	.	16eee\	.
.	.	16ddd#\	.
16e\Jk 16a 16cc	.	16eee\	.
2a^^\ 2cc 2ee	4bbb/	16bbb\	.
.	.	16eee\	.
.	.	16ddd#\	.
.	.	16eee\	.
.	4aaa/	16aaa\	.
.	.	16eee\	.
.	.	16ddd#\	.
.	.	16eee\JJ	.
*Xped	*	*	*
*clefF4	*	*	*
!!LO:LB:g=original
=75	=75	=75	=75
*ped	*	*	*
!LO:N:vis=16	!	!	!
8EE/ 8E	4ggg#X/	16ggg#\LL	.
.	.	16bb\	.
*clefG2	*	*	*
16r	.	16aa#X\	.
16e\ 16g#X 16b	.	16bb\	.
8.e\L 8.g# 8.b	4bbb/	16bbb\	.
.	.	16bb\	.
.	.	16aa#\	.
16e\Jk 16g# 16b	.	16bb\	.
2g#^^\ 2b 2ee	4eeee/	16eeee\	.
.	.	16bb\	.
.	.	16aa#\	.
.	.	16bb\	.
.	4ggg#/	16ggg#\	.
.	.	16bb\	.
.	.	16aa#\	.
.	.	16bb\JJ	.
*Xped	*	*	*
*clefF4	*	*	*
=76	=76	=76	=76
*ped	*	*	*
!LO:N:vis=16	!	!	!
8AAA/ 8AA	2aaa/	16aaa\LL	.
.	.	16aa\	.
*clefG2	*	*	*
16r	.	16gg#X\	.
16e\ 16a 16cc	.	16aa\	.
8.e\L 8.a 8.cc	.	16gg#\	.
.	.	16aa\	.
.	.	16gg#\	.
16e\Jk 16a 16cc	.	16aa\	.
2a^^\ 2cc 2ee	4raa	16gg#\	.
.	.	16aa\	.
.	.	16gg#\	.
.	.	16aa\	.
.	4raa	16gg#\	.
.	.	16aa\	.
.	.	16gg#\	.
.	.	16aa\JJ	.
*Xped	*	*	*
*clefF4	*	*	*
=77	=77	=77	=77
*ped	*	*	*
!LO:N:vis=16	!	!	!
8CC/ 8C	4cccc/	16cccc\LL	.
.	.	16ccc\	.
*clefG2	*	*	*
16r	.	16bb\	.
16g\ 16cc 16ee	.	16ccc\	.
8.g\L 8.cc 8.ee	4ggg/	16ggg\	.
.	.	16ccc\	.
.	.	16bb\	.
16g\Jk 16cc 16ee	.	16ccc\	.
2cc^^\ 2ee 2gg	4cccc/	16cccc\	.
.	.	16ccc\	.
.	.	16bb\	.
.	.	16ccc\	.
.	4ggg/	16ggg\	.
.	.	16ccc\	.
.	.	16bb\	.
.	.	16ccc\JJ	.
*Xped	*	*	*
*clefF4	*	*	*
!!LO:LB:g=original
=78	=78	=78	=78
*ped	*	*	*
!LO:N:vis=16	!	!	!
8C\ 8c	4cccc/	16cccc\LL	.
.	.	16ggg\	.
*clefG2	*	*	*
16r	.	16fff#X\	.
16g\ 16cc 16ee	.	16ggg\	.
8.g\L 8.cc 8.ee	4eeee/	16eeee\	.
.	.	16ggg\	.
.	.	16fff#\	.
16g\Jk 16cc 16ee	.	16ggg\	.
2cc^^\ 2ee 2gg	4dddd/	16dddd\	.
.	.	16ggg\	.
.	.	16fff#\	.
.	.	16ggg\	.
.	4cccc/	16cccc\	.
.	.	16ggg\	.
.	.	16fff#\	.
.	.	16ggg\JJ	.
*Xped	*	*	*
!!LO:LB:g=original
*clefF4	*	*	*
=79	=79	=79	=79
!LO:N:vis=16	!	!	!
8GGG/ 8GG	4bbb/	16bbb\LL	.
.	.	16ddd\	.
*clefG2	*	*	*
16r	.	16ccc#X\	.
16g\ 16b 16dd	.	16ddd\	.
8.g\L 8.b 8.dd	4ggg/	16ggg\	.
.	.	16ddd\	.
.	.	16ccc#\	.
16g\Jk 16b 16dd	.	16ddd\	.
2b^^\ 2dd 2gg	4bbb/	16bbb\	.
.	.	16ddd\	.
.	.	16ccc#\	.
.	.	16ddd\	.
.	4ggg/	16ggg\	.
.	.	16ddd\	.
.	.	16ccc#\	.
.	.	16ddd\JJ	.
*Xped	*	*	*
*clefF4	*	*	*
=80	=80	=80	=80
*ped	*	*	*
8GG/ 8G	4bbb/	16bbb\LL	.
.	.	16ddd\	.
*clefG2	*	*	*
16r	.	16ccc#X\	.
16g\ 16b 16dd	.	16ddd\	.
8.g\L 8.b 8.dd	4dddd/	16dddd\	.
.	.	16ddd\	.
.	.	16ccc#\	.
16g\Jk 16b 16dd	.	16ddd\	.
4e:\ 4a: 4cc: 4ee:	4ccccn/	16ccccn\	.
.	.	16cccn\	.
.	.	16bb\	.
.	.	16ccc\	.
4e:\ 4g#X: 4b: 4ee:	4bbb/	16bbb\	.
.	.	16bb\	.
.	.	16aa#X\	.
.	.	16bb\JJ	.
*Xped	*	*	*
*clefF4	*	*	*
!!LO:PB:g=original
=81	=81	=81	=81
*ped	*	*	*
!LO:N:vis=16	!	!	!
8AAA/ 8AA	4aaa/	16aaa\LL	.
.	.	16aa\	.
*clefG2	*	*	*
16r	.	16gg#X\	.
16e\ 16a 16cc	.	16aa\	.
8.e\L 8.a 8.cc	4eee/	16eee\	.
.	.	16aa\	.
.	.	16gg#\	.
16e\Jk 16a 16cc	.	16aa\	.
2a^^\ 2cc 2ee	4aaa/	16aaa\	.
.	.	16aa\	.
.	.	16gg#\	.
.	.	16aa\	.
.	4eee/	16eee\	.
.	.	16aa\	.
.	.	16gg#\	.
.	.	16aa\JJ	.
*Xped	*	*	*
*clefF4	*	*	*
=82	=82	=82	=82
*ped	*	*	*
!LO:N:vis=16	!	!	!
8AA/ 8A	4aaa/	16aaa\LL	.
.	.	16eee\	.
*clefG2	*	*	*
16r	.	16ddd#X\	.
16e\ 16a 16cc	.	16eee\	.
8.e\L 8.a 8.cc	4cccc/	16cccc\	.
.	.	16eee\	.
.	.	16ddd#\	.
16e\Jk 16a 16cc	.	16eee\	.
2a^^\ 2cc 2ee	4bbb/	16bbb\	.
.	.	16eee\	.
.	.	16ddd#\	.
.	.	16eee\	.
.	4aaa/	16aaa\	.
.	.	16eee\	.
.	.	16ddd#\	.
.	.	16eee\JJ	.
*Xped	*	*	*
*clefF4	*	*	*
=83	=83	=83	=83
*ped	*	*	*
!LO:N:vis=16	!	!	!
8EE/ 8E	4ggg#X/	16ggg#\LL	.
.	.	16bb\	.
*clefG2	*	*	*
16r	.	16aa#X\	.
16e\ 16g#X 16b	.	16bb\	.
8.e\L 8.g# 8.b	4bbb/	16bbb\	.
.	.	16bb\	.
.	.	16aa#\	.
16e\Jk 16g# 16b	.	16bb\	.
2g#^^\ 2b 2ee	4eeee/	16eeee\	.
.	.	16bb\	.
.	.	16aa#\	.
.	.	16bb\	.
.	4ggg#/	16ggg#\	.
.	.	16bb\	.
.	.	16aa#\	.
.	.	16bb\JJ	.
*Xped	*	*	*
!!LO:LB:g=original
*clefF4	*	*	*
=84	=84	=84	=84
*ped	*	*	*
!LO:N:vis=16	!	!	!
8AAA/ 8AA	2aaa/	16aaa\LL	.
.	.	16aa\	.
*clefG2	*	*	*
16r	.	16gg#X\	.
16e\ 16a 16cc	.	16aa\	.
8.e\L 8.a 8.cc	.	16gg#\	.
.	.	16aa\	.
.	.	16gg#\	.
16e\Jk 16a 16cc	.	16aa\	.
2a^^\ 2cc 2ee	2ryy	16gg#\	.
.	.	16aa\	.
.	.	16gg#\	.
.	.	16aa\	.
.	.	16gg#\	.
.	.	16aa\	.
.	.	16gg#\	.
.	.	16aa\JJ	.
*Xped	*	*	*
*clefF4	*	*	*
=85	=85	=85	=85
*ped	*	*	*
!LO:N:vis=16	!	!	!
8CC/ 8C	4cccc/	16cccc\LL	.
.	.	16ccc\	.
*clefG2	*	*	*
16r	.	16bb\	.
16g\ 16cc 16ee	.	16ccc\	.
8.g\L 8.cc 8.ee	4ggg/	16ggg\	.
.	.	16ccc\	.
.	.	16bb\	.
16g\Jk 16cc 16ee	.	16ccc\	.
2cc^^\ 2ee 2gg	4cccc/	16cccc\	.
.	.	16ccc\	.
.	.	16bb\	.
.	.	16ccc\	.
.	4ggg/	16ggg\	.
.	.	16ccc\	.
.	.	16bb\	.
.	.	16ccc\JJ	.
*Xped	*	*	*
*clefF4	*	*	*
=86	=86	=86	=86
*ped	*	*	*
!LO:N:vis=16	!	!	!
8C\ 8c	4cccc/	16cccc\LL	.
.	.	16ggg\	.
*clefG2	*	*	*
16r	.	16fff#X\	.
16g\ 16cc 16ee	.	16ggg\	.
8.g\L 8.cc 8.ee	4eeee/	16eeee\	.
.	.	16ggg\	.
.	.	16fff#\	.
16g\Jk 16cc 16ee	.	16ggg\	.
2cc\ 2ee 2gg	4dddd/	16dddd\	.
.	.	16ggg\	.
.	.	16fff#\	.
.	.	16ggg\	.
.	4cccc/	16cccc\	.
.	.	16ggg\	.
.	.	16fff#\	.
.	.	16ggg\JJ	.
*Xped	*	*	*
!!LO:LB:g=original
*clefF4	*	*	*
=87	=87	=87	=87
*ped	*	*	*
8GGG/ 8GG	4bbb/	16bbb\LL	.
.	.	16ddd\	.
*clefG2	*	*	*
16r	.	16ccc#X\	.
16g\ 16b 16dd	.	16ddd\	.
8.g\L 8.b 8.dd	4ggg/	16ggg\	.
.	.	16ddd\	.
.	.	16ccc#\	.
16g\Jk 16b 16dd	.	16ddd\	.
2b^^\ 2dd 2gg	4bbb/	16bbb\	.
.	.	16ddd\	.
.	.	16ccc#\	.
.	.	16ddd\	.
.	4ggg/	16ggg\	.
.	.	16ddd\	.
.	.	16ccc#\	.
.	.	16ddd\JJ	.
*Xped	*	*	*
*clefF4	*	*	*
=88	=88	=88	=88
*ped	*	*	*
!LO:N:vis=16	!	!	!
8GG\ 8G	4bbb/	16bbb\LL	.
.	.	16ddd\	.
*clefG2	*	*	*
16r	.	16ccc#X\	.
16g\ 16b 16dd	.	16ddd\	.
8.g\L 8.b 8.dd	4dddd/	16dddd\	.
.	.	16ddd\	.
.	.	16ccc#\	.
16g\Jk 16b 16dd	.	16ddd\	.
4e:\ 4a: 4cc: 4ee:	4ccccn/	16ccccn\	.
.	.	16cccn\	.
.	.	16bb\	.
.	.	16ccc\	.
4e:\ 4g#X: 4b: 4ee:	4bbb/	16bbb\	.
.	.	16bb\	.
.	.	16aa#X\	.
.	.	16bb\JJ	.
*Xped	*	*	*
*clefF4	*	*	*
=89	=89	=89	=89
*ped	*	*	*
!LO:N:vis=16	!	!	!
8AAA/ 8AA	4aaa/	16aaa\LL	.
.	.	16aa\	.
*clefG2	*	*	*
16r	.	16gg#X\	.
16e\ 16a 16cc	.	16aa\	.
8.e\L 8.a 8.cc	4eee/	16eee\	.
.	.	16aa\	.
.	.	16gg#\	.
16e\Jk 16a 16cc	.	16aa\	.
2a^^\ 2cc 2ee	4aaa/	16aaa\	.
.	.	16aa\	.
.	.	16gg#\	.
.	.	16aa\	.
.	4eee/	16eee\	.
.	.	16aa\	.
.	.	16gg#\	.
.	.	16aa\JJ	.
*Xped	*	*	*
!!LO:LB:g=original
*clefF4	*	*	*
=90	=90	=90	=90
*ped	*	*	*
!LO:N:vis=16	!	!	!
8AA\ 8A	4aaa/	16aaa\LL	.
.	.	16eee\	.
*clefG2	*	*	*
16r	.	16ddd#X\	.
16e\ 16a 16cc	.	16eee\	.
8.e\L 8.a 8.cc	4cccc/	16cccc\	.
.	.	16eee\	.
.	.	16ddd#\	.
16e\Jk 16a 16cc	.	16eee\	.
2a^^\ 2cc 2ee	4bbb/	16bbb\	.
.	.	16eee\	.
.	.	16ddd#\	.
.	.	16eee\	.
.	4aaa/	16aaa\	.
.	.	16eee\	.
.	.	16ddd#\	.
.	.	16eee\JJ	.
*Xped	*	*	*
*clefF4	*	*	*
=91	=91	=91	=91
*ped	*	*	*
8EE/ 8E	4ggg#X/	16ggg#\LL	.
.	.	16bb\	.
*clefG2	*	*	*
16r	.	16aa#X\	.
16e\ 16g#X 16b	.	16bb\	.
8.e\L 8.g# 8.b	4bbb/	16bbb\	.
.	.	16bb\	.
.	.	16aa#\	.
16e\Jk 16g# 16b	.	16bb\	.
2g#^^\ 2b 2ee	4eeee/	16eeee\	.
.	.	16bb\	.
.	.	16aa#\	.
.	.	16bb\	.
.	4ggg#/	16ggg#\	.
.	.	16bb\	.
.	.	16aa#\	.
.	.	16bb\JJ	.
*Xped	*	*	*
*clefF4	*	*	*
=92	=92	=92	=92
*ped	*	*	*
8AA\ 8A	[2aaa/	16aaa\LL	.
.	.	16aa\	.
*clefG2	*	*	*
16r	.	16gg#X\	.
16e\ 16a 16cc	.	16aa\	.
8.e\L 8.a 8.cc	.	16gg#\	.
.	.	16aa\	.
.	.	16gg#\	.
16e\Jk 16a 16cc	.	16aa\	.
2a^^\ 2cc 2ee	2aaa/]	16aaa\	.
.	.	16aa\	.
.	.	16gg#\	.
.	.	16aa\	.
.	.	16gg#\	.
.	.	16aa\	.
.	.	16gg#\	.
.	.	16aa\JJ	.
*Xped	*	*	*
!!LO:LB:g=original
*clefF4	*	*	*
=93	=93	=93	=93
*ped	*	*	*
8EE/ 8E	4ggg#X/	16ggg#\LL	.
.	.	16bb\	.
*clefG2	*	*	*
16r	.	16aa#X\	.
16e\ 16g#X 16b	.	16bb\	.
8.e\L 8.g# 8.b	4bbb/	16bbb\	.
.	.	16bb\	.
.	.	16aa#\	.
16e\Jk 16g# 16b	.	16bb\	.
2g#^^\ 2b 2ee	4eeee/	16eeee\	.
.	.	16bb\	.
.	.	16aa#\	.
.	.	16bb\	.
.	4ggg#/	16ggg#\	.
.	.	16bb\	.
.	.	16aa#\	.
.	.	16bb\JJ	.
*Xped	*	*	*
*clefF4	*	*	*
=94	=94	=94	=94
*ped	*	*	*
8AA\ 8A	4aaa/	16aaa\LL	.
.	.	16aa\	.
*clefG2	*	*	*
16r	.	16gg#X\	.
16e\ 16a 16cc	.	16aa\	.
8.e\L 8.a 8.cc	4eee/	16eee\	.
.	.	16aa\	.
.	.	16gg#\	.
16e\Jk 16a 16cc	.	16aa\	.
2a^^\ 2cc 2ee	4cccc/	16cccc\	.
.	.	16aa\	.
.	.	16gg#\	.
.	.	16aa\	.
.	4aaa/	16aaa\	.
.	.	16aa\	.
.	.	16gg#\	.
.	.	16aa\JJ	.
*Xped	*	*	*
*clefF4	*	*	*
=95	=95	=95	=95
*ped	*	*	*
8EE/ 8E	4ggg#X/	16ggg#\LL	.
.	.	16bb\	.
*clefG2	*	*	*
16r	.	16aa#X\	.
16e\ 16g#X 16b	.	16bb\	.
8.e\L 8.g# 8.b	4bbb/	16bbb\	.
.	.	16bb\	.
.	.	16aa#\	.
16e\Jk 16g# 16b	.	16bb\	.
2g#^^\ 2b 2ee	4eeee/	16eeee\	.
.	.	16bb\	.
.	.	16aa#\	.
.	.	16bb\	.
.	4ggg#/	16ggg#\	.
.	.	16bb\	.
.	.	16aa#\	.
.	.	16bb\JJ	.
*Xped	*	*	*
!!LO:PB:g=original
*clefF4	*	*	*
=96	=96	=96	=96
*ped	*	*	*
8AA\ 8A	2aaa/	16aaa\LL	.
.	.	16aa\	.
*clefG2	*	*	*
16r	.	16gg#X\	.
16e\ 16a 16cc	.	16aa\	.
8.e\L 8.a 8.cc	.	16gg#\	.
.	.	16aa\	.
.	.	16gg#\	.
16e\Jk 16a 16cc	.	16aa\	.
2a^^\ 2cc 2ee	2eee/	16gg#\	.
.	.	16aa\	.
.	.	16gg#\	.
.	.	16aa\	.
.	.	16gg#\	.
.	.	16aa\	.
.	.	16gg#\	.
.	.	16aa\JJ	.
*Xped	*	*	*
*clefF4	*	*	*
=97	=97	=97	=97
*ped	*	*	*
8EE/ 8E	4ggg#X/	16ggg#\LL	.
.	.	16bb\	.
*clefG2	*	*	*
16r	.	16aa#X\	.
16e\ 16g#X 16b	.	16bb\	.
8.e\L 8.g# 8.b	4bbb/	16bbb\	.
.	.	16bb\	.
.	.	16aa#\	.
16e\Jk 16g# 16b	.	16bb\	.
2g#^^\ 2b 2ee	4eeee/	16eeee\	.
.	.	16bb\	.
.	.	16aa#\	.
.	.	16bb\	.
.	4ggg#/	16ggg#\	.
.	.	16bb\	.
.	.	16aa#\	.
.	.	16bb\JJ	.
*Xped	*	*	*
*clefF4	*	*	*
=98	=98	=98	=98
*ped	*	*	*
8AA\ 8A	4aaa/	16aaa\LL	.
.	.	16aa\	.
*clefG2	*	*	*
16r	.	16gg#X\	.
16e\ 16a 16cc	.	16aa\	.
8.e\L 8.a 8.cc	4eee/	16eee\	.
.	.	16aa\	.
.	.	16gg#\	.
16e\Jk 16a 16cc	.	16aa\	.
2a^^\ 2cc 2ee	4cccc/	16cccc\	.
.	.	16aa\	.
.	.	16gg#\	.
.	.	16aa\	.
.	4aaa/	16aaa\	.
.	.	16aa\	.
.	.	16gg#\	.
.	.	16aa\JJ	.
*Xped	*	*	*
!!LO:LB:g=original
*clefF4	*	*	*
=99	=99	=99	=99
*ped	*	*	*
8EE/ 8E	4ggg#X/	16ggg#\LL	.
.	.	16bb\	.
*clefG2	*	*	*
16r	.	16aa#X\	.
16e\ 16g#X 16b	.	16bb\	.
8.e\L 8.g# 8.b	4bbb/	16bbb\	.
.	.	16bb\	.
.	.	16aa#\	.
16e\Jk 16g# 16b	.	16bb\	.
2g#^^\ 2b 2ee	4eeee/	16eeee\	.
.	.	16bb\	.
.	.	16aa#\	.
.	.	16bb\	.
.	4ggg#/	16ggg#\	.
.	.	16bb\	.
.	.	16aa#\	.
.	.	16bb\JJ	.
*Xped	*	*	*
*clefF4	*	*	*
=100	=100	=100	=100
*ped	*	*	*
8AA\ 8A	2aaa/	16aaa\LL	.
.	.	16aa\	.
*clefG2	*	*	*
16r	.	16gg#X\	.
16e\ 16a 16cc	.	16aa\	.
8.e\L 8.a 8.cc	.	16gg#\	.
.	.	16aa\	.
.	.	16gg#\	.
16e\Jk 16a 16cc	.	16aa\	.
2a^^\ 2cc 2ee	2eee/	16gg#\	.
.	.	16aa\	.
.	.	16gg#\	.
.	.	16aa\	.
.	.	16gg#\	.
.	.	16aa\	.
.	.	16gg#\	.
.	.	16aa\JJ	.
*Xped	*	*	*
*clefF4	*	*	*
=101	=101	=101	=101
*ped	*	*	*
8AA\ 8A	2aaa/	16aaa\LL	.
.	.	16aa\	.
*clefG2	*	*	*
16r	.	16gg#X\	.
16e\ 16a 16cc	.	16aa\	.
8.e\L 8.a 8.cc	.	16gg#\	.
.	.	16aa\	.
.	.	16gg#\	.
16e\Jk 16a 16cc	.	16aa\	.
2a^^\ 2cc 2ee	2cccc/	16eee\ 16cccc	.
.	.	16aa\	.
.	.	16gg#\	.
.	.	16aa\	.
.	.	16gg#\	.
.	.	16aa\	.
.	.	16gg#\	.
.	.	16aa\JJ	.
*Xped	*	*	*
!!LO:LB:g=original
*clefF4	*	*	*
=102	=102	=102	=102
*ped	*	*	*
8AA\ 8A	2aaa/	16aaa\LL	.
.	.	16aa\	.
*clefG2	*	*	*
16r	.	16gg#X\	.
16e\ 16a 16cc	.	16aa\	.
8.e\L 8.a 8.cc	.	16gg#\	.
.	.	16aa\	.
.	.	16gg#\	.
16e\Jk 16a 16cc	.	16aa\	.
2a^^\ 2cc 2ee	2eee/	16eee\	.
.	.	16aa\	.
.	.	16gg#\	.
.	.	16aa\	.
.	.	16gg#\	.
.	.	16aa\	.
.	.	16gg#\	.
.	.	16aa\JJ	.
*Xped	*	*	*
*clefF4	*	*	*
=103	=103	=103	=103
*ped	*	*	*
8AA\ 8A	2aaa/	16aaa\LL	.
.	.	16aa\	.
*clefG2	*	*	*
16r	.	16gg#X\	.
16e\ 16a 16cc	.	16aa\	.
8.e\L 8.a 8.cc	.	16gg#\	.
.	.	16aa\	.
.	.	16gg#\	.
16e\Jk 16a 16cc	.	16aa\	.
2a^^\ 2cc 2ee	2cccc/	16aaa\	.
.	.	16aa\	.
.	.	16gg#\	.
.	.	16aa\	.
.	.	16gg#\	.
.	.	16aa\	.
.	.	16gg#\	.
.	.	16aa\JJ	.
*Xped	*	*	*
*clefF4	*	*	*
=104	=104	=104	=104
*ped	*	*	*
8AA\ 8A	2aaa/	16aaa\LL	.
.	.	16aa\	.
*clefG2	*	*	*
16r	.	16gg#X\	.
16e\ 16a 16cc	.	16aa\	.
8.e\L 8.a 8.cc	.	16gg#\	.
.	.	16aa\	.
.	.	16gg#\	.
16e\Jk 16a 16cc	.	16aa\	.
2a^^\ 2cc 2ee	2aaa/	16aaa\	.
.	.	16aa\	.
.	.	16gg#\	.
.	.	16aa\	.
.	.	16gg#\	.
.	.	16aa\	.
.	.	16gg#\	.
.	.	16aa\JJ	.
*Xped	*	*	*
!!LO:LB:g=original
*clefF4	*	*	*
=105	=105	=105	=105
*ped	*	*	*
8AA\ 8A	2aaa/	16aaa\LL	.
.	.	16aa\	.
*clefG2	*	*	*
16r	.	16gg#X\	.
16e\ 16a 16cc	.	16aa\	.
8.e\L 8.a 8.cc	.	16gg#\	.
.	.	16aa\	.
.	.	16gg#\	.
16e\Jk 16a 16cc	.	16aa\JJ	.
*	*v	*v	*
2a^^\ 2cc 2ee	54aa\L	.
.	54aa#X\	.
.	54bb\	.
.	54bb#X\	.
.	54ccc#X\	.
.	54ddd\	.
.	54ddd#X\	.
.	54eee\	.
.	54eee#X\	.
.	54fff#X\	.
!	!LO:TX:i:b:t=presto	!
.	54ggg\	.
.	54ggg#X\	.
.	54aaan\	.
.	54aaa#X\	.
.	54bbbn\	.
.	54bbb#X\	.
.	54cccc\	.
.	54ddddn\	.
.	54dddd#X\	.
.	54eeeen\	.
.	54eeee#X\	.
.	54ffff\	.
.	54eeeen\	.
.	54eeee#X\	.
.	54aaaan\	.
.	54aaaa;\	.
.	54aaa#\J	.
*Xped	*	*
*clefF4	*	*
=106	=106	=106
*ped	*	*
*^	*	*
2rcyy	8AA'\L 8A	4aaaT/	.
*	*clefG2	*	*
.	8e'\ 8a	.	.
.	8a'\ 8cc	4eeet/	.
.	8cc'\ 8ee	.	.
!LO:CL:ed	!	!	!
*clefG2	*	*	*
4ryy	8a'\ 8cc	4aaaT/	.
.	8cc'\ 8ee	.	.
8aa/	8ee'\ 8aa	4eeet/	.
[8ryy	8a'\J 8cc 8ee	.	.
*Xped	*	*	*
!!LO:LB:g=original
*clefF4	*	*	*
=107	=107	=107	=107
*ped	*	*	*
2ryy]	8AA'\L 8A	4aaaT/	.
*	*clefG2	*	*
.	8e'\ 8a	.	.
.	8a'\ 8cc	4ccccT/	.
.	8cc'\ 8ee	.	.
!LO:CL:ed	!	!	!
*clefG2	*	*	*
4ryy	8a'\ 8cc	4bbbt/	.
.	8cc'\ 8ee	.	.
8aa/	8ee'\ 8aa	4aaaT/	.
[8ryy	8a'\J 8cc 8ee	.	.
*Xped	*	*	*
*clefF4	*	*	*
=108	=108	=108	=108
*ped	*	*	*
2ryy]	8EE'\L 8E	4ggg#Xt/	.
*	*clefG2	*	*
.	8e'\ 8g#X	.	.
.	8g#'\ 8b	4eeet/	.
.	8b'\ 8ee	.	.
!LO:CL:ed	!	!	!
*clefG2	*	*	*
4ryy	8g#'\ 8b	4ggg#t/	.
.	8b'\ 8ee	.	.
8gg#X/	8ee'\ 8gg#	4eeet/	.
[8ryy	8g#'\J 8b 8ee	.	.
*Xped	*	*	*
*clefF4	*	*	*
=109	=109	=109	=109
*ped	*	*	*
2ryy]	8EE'\L 8E	4ggg#Xt/	.
*	*clefG2	*	*
.	8e'\ 8g#X	.	.
.	8g#'\ 8b	4bbbt/	.
.	8b'\ 8ee	.	.
!LO:CL:ed	!	!	!
*clefG2	*	*	*
4ryy	8g#'\ 8b	4aaaT/	.
.	8b'\ 8ee	.	.
8gg#X/	8ee'\ 8gg#	4ggg#t/	.
[8ryy	8g#'\J 8b 8ee	.	.
*Xped	*	*	*
*clefF4	*	*	*
=110	=110	=110	=110
*ped	*	*	*
2ryy]	8AA'\L 8A	4aaaT/	.
*	*clefG2	*	*
.	8e'\ 8a	.	.
.	8a'\ 8cc	4eeet/	.
.	8cc'\ 8ee	.	.
!LO:CL:ed	!	!	!
*clefG2	*	*	*
4ryy	8a'\ 8cc	4aaaT/	.
.	8cc'\ 8ee	.	.
8aa/	8ee'\ 8aa	4eeet/	.
[8ryy	8a'\J 8cc 8ee	.	.
*Xped	*	*	*
!!LO:PB:g=original
*clefF4	*	*	*
=111	=111	=111	=111
*ped	*	*	*
2ryy]	8AA'\L 8A	4aaaT/	.
*	*clefG2	*	*
.	8e'\ 8a	.	.
.	8a'\ 8cc	4ccccT/	.
.	8cc'\ 8ee	.	.
!LO:CL:ed	!	!	!
*clefG2	*	*	*
4ryy	8a'\ 8cc	4bbbt/	.
.	8cc'\ 8ee	.	.
8aa/	8ee'\ 8aa	4aaaT/	.
[8ryy	8a'\J 8cc 8ee	.	.
*Xped	*	*	*
*clefF4	*	*	*
=112	=112	=112	=112
*ped	*	*	*
2ryy]	8EE'\L 8E	4ggg#Xt/	.
*	*clefG2	*	*
.	8e'\ 8g#X	.	.
.	8g#'\ 8b	4bbbt/	.
.	8b'\ 8ee	.	.
!LO:CL:ed	!	!	!
*clefG2	*	*	*
4ryy	8g#'\ 8b	4eeeet/	.
.	8b'\ 8ee	.	.
8gg#X/	8ee'\ 8gg#	4ggg#t/	.
[8ryy	8g#'\J 8b 8ee	.	.
*Xped	*	*	*
*clefF4	*	*	*
=113	=113	=113	=113
*ped	*	*	*
2ryy]	8AA'\L 8A	1aaaTT	.
*	*clefG2	*	*
.	8e'\ 8a	.	.
.	8a'\ 8cc	.	.
.	8cc'\ 8ee	.	.
!LO:CL:ed	!	!	!
*clefG2	*	*	*
4ryy	8a'\ 8cc	.	.
.	8cc'\ 8ee	.	.
8aa/	8ee'\ 8aa	.	.
[8ryy	8a'\J 8cc 8ee	.	.
*Xped	*	*	*
!!LO:LB:g=original
*clefF4	*	*	*
=114	=114	=114	=114
*ped	*	*	*
2ryy]	8C'\L 8c	4ccccT/	.
*	*clefG2	*	*
.	8e'\ 8g	.	.
.	8g'\ 8cc	4gggT/	.
.	8cc'\ 8ee	.	.
!LO:CL:ed	!	!	!
*clefG2	*	*	*
4ryy	8g'\ 8cc	4ccccT/	.
.	8cc'\ 8ee	.	.
8gg/	8ee'\ 8gg	4gggT/	.
[8ryy	8g'\J 8cc 8ee	.	.
*Xped	*	*	*
*clefF4	*	*	*
=115	=115	=115	=115
*ped	*	*	*
2ryy]	8C'\L 8c	4ccccT/	.
*	*clefG2	*	*
.	8e'\ 8g	.	.
.	8g'\ 8cc	4eeeet/	.
.	8cc'\ 8ee	.	.
!LO:CL:ed	!	!	!
*clefG2	*	*	*
4ryy	8g'\ 8cc	4ddddT/	.
.	8cc'\ 8ee	.	.
8gg/	8ee'\ 8gg	4ccccT/	.
[8ryy	8g'\J 8cc 8ee	.	.
*Xped	*	*	*
*clefF4	*	*	*
=116	=116	=116	=116
*ped	*	*	*
2ryy]	8GG'\L 8G	4bbbt/	.
*	*clefG2	*	*
.	8d'\ 8g	.	.
.	8g'\ 8b	4gggT/	.
.	8b'\ 8dd	.	.
!LO:CL:ed	!	!	!
*clefG2	*	*	*
4ryy	8g'\ 8b	4bbbt/	.
.	8b'\ 8dd	.	.
8gg/	8dd'\ 8gg	4gggT/	.
[8ryy	8g'\J 8b 8dd	.	.
*Xped	*	*	*
!!LO:LB:g=original
*clefF4	*	*	*
=117	=117	=117	=117
*ped	*	*	*
2ryy]	8GG'\L 8G	4bbbt/	.
*	*clefG2	*	*
.	8d'\ 8g	.	.
.	8g'\ 8b	4ddddT/	.
.	8b'\ 8dd	.	.
!LO:CL:ed	!	!	!
*clefG2	*	*	*
4ryy	8g'\ 8b	4ccccT/	.
.	8b'\ 8dd	.	.
8ee/	8ee'\	4bbbt/	.
[8ryy	8e'\J 8g#X 8b	.	.
*Xped	*	*	*
*clefF4	*	*	*
=118	=118	=118	=118
*ped	*	*	*
2ryy]	8AA'\L 8G	4aaaT/	.
*	*clefG2	*	*
.	8e'\ 8a	.	.
.	8a'\ 8cc	4eeet/	.
.	8cc'\ 8ee	.	.
!LO:CL:ed	!	!	!
*clefG2	*	*	*
4ryy	8a'\ 8cc	4aaaT/	.
.	8cc'\ 8ee	.	.
8aa/	8ee'\ 8aa	4eeet/	.
[8ryy	8a'\J 8cc 8ee	.	.
*Xped	*	*	*
*clefF4	*	*	*
=119	=119	=119	=119
*ped	*	*	*
2ryy]	8AA'\L 8A	4aaaT/	.
*	*clefG2	*	*
.	8e'\ 8a	.	.
.	8a'\ 8cc	4ccccT/	.
.	8cc'\ 8ee	.	.
!LO:CL:ed	!	!	!
*clefG2	*	*	*
4ryy	8a'\ 8cc	4bbbt/	.
.	8cc'\ 8ee	.	.
8aa/	8ee'\ 8aa	4aaaT/	.
[8ryy	8a'\J 8cc 8ee	.	.
*Xped	*	*	*
!!LO:LB:g=original
*clefF4	*	*	*
=120	=120	=120	=120
*ped	*	*	*
2ryy]	8EE'\L 8E	4ggg#Xt/	.
*	*clefG2	*	*
.	8e'\ 8g#X	.	.
.	8g#'\ 8b	4bbbt/	.
.	8b'\ 8ee	.	.
!LO:CL:ed	!	!	!
*clefG2	*	*	*
4ryy	8g#'\ 8b	4eeeet/	.
.	8b'\ 8ee	.	.
8gg#X/	8ee'\ 8gg#	4ggg#t/	.
[8ryy	8g#'\J 8b 8ee	.	.
*Xped	*	*	*
*clefF4	*	*	*
=121	=121	=121	=121
*ped	*	*	*
2ryy]	8AA'\L 8A	1aaaTT	.
*	*clefG2	*	*
.	8e'\ 8a	.	.
.	8a'\ 8cc	.	.
.	8cc'\ 8ee	.	.
!LO:CL:ed	!	!	!
*clefG2	*	*	*
4ryy	8a'\ 8cc	.	.
.	8cc'\ 8ee	.	.
8aa/	8ee'\ 8aa	.	.
[8ryy	8a'\J 8cc 8ee	.	.
*Xped	*	*	*
*clefF4	*	*	*
=122	=122	=122	=122
*ped	*	*	*
2ryy]	8C'\L 8c	4ccccT/	.
*	*clefG2	*	*
.	8e'\ 8g	.	.
.	8g'\ 8cc	4gggT/	.
.	8cc'\ 8ee	.	.
!LO:CL:ed	!	!	!
*clefG2	*	*	*
4ryy	8g'\ 8cc	4ccccT/	.
.	8cc'\ 8ee	.	.
8gg/	8ee'\ 8gg	4gggT/	.
[8ryy	8g'\J 8cc 8ee	.	.
*Xped	*	*	*
!!LO:LB:g=original
*clefF4	*	*	*
=123	=123	=123	=123
*ped	*	*	*
2ryy]	8C'\L 8c	4ccccT/	.
*	*clefG2	*	*
.	8e'\ 8g	.	.
.	8g'\ 8cc	4eeeet/	.
.	8cc'\ 8ee	.	.
!LO:CL:ed	!	!	!
*clefG2	*	*	*
4ryy	8g'\ 8cc	4ddddT/	.
.	8cc'\ 8ee	.	.
8gg/	8ee'\ 8gg	4ccccT/	.
[8ryy	8g'\J 8cc 8ee	.	.
*Xped	*	*	*
*clefF4	*	*	*
=124	=124	=124	=124
*ped	*	*	*
2ryy]	8GG'\L 8G	4bbbt/	.
*	*clefG2	*	*
.	8d'\ 8g	.	.
.	8g'\ 8b	4gggT/	.
.	8b'\ 8dd	.	.
!LO:CL:ed	!	!	!
*clefG2	*	*	*
4ryy	8g'\ 8b	4bbbt/	.
.	8b'\ 8dd	.	.
8gg/	8dd'\ 8gg	4gggT/	.
[8ryy	8g'\J 8b 8dd	.	.
*Xped	*	*	*
*clefF4	*	*	*
=125	=125	=125	=125
*ped	*	*	*
2ryy]	8GG'\L 8G	4bbbt/	.
*	*clefG2	*	*
.	8d'\ 8g	.	.
.	8g'\ 8b	4ddddT/	.
.	8b'\ 8dd	.	.
!LO:CL:ed	!	!	!
*clefG2	*	*	*
4ryy	8g'\ 8b	4ccccT/	.
.	8b'\ 8dd	.	.
8ee/	8ee'\	4bbbt/	.
[8ryy	8e'\J 8g#X 8b	.	.
*Xped	*	*	*
!!LO:PB:g=original
*clefF4	*	*	*
=126	=126	=126	=126
*ped	*	*	*
2ryy]	8AA'\L 8A	4aaaT/	.
*	*clefG2	*	*
.	8e'\ 8a	.	.
.	8a'\ 8cc	4eeet/	.
.	8cc'\ 8ee	.	.
!LO:CL:ed	!	!	!
*clefG2	*	*	*
4ryy	8a'\ 8cc	4aaaT/	.
.	8cc'\ 8ee	.	.
8aa/	8ee'\ 8aa	4eeet/	.
[8ryy	8a'\J 8cc 8ee	.	.
*Xped	*	*	*
*clefF4	*	*	*
=127	=127	=127	=127
*ped	*	*	*
2ryy]	8AA'\L 8A	4aaaT/	.
*	*clefG2	*	*
.	8e'\ 8a	.	.
.	8a'\ 8cc	4ccccT/	.
.	8cc'\ 8ee	.	.
!LO:CL:ed	!	!	!
*clefG2	*	*	*
4ryy	8a'\ 8cc	4bbbt/	.
.	8cc'\ 8ee	.	.
8aa/	8ee'\ 8aa	4aaaT/	.
[8ryy	8a'\J 8cc 8ee	.	.
*Xped	*	*	*
*clefF4	*	*	*
=128	=128	=128	=128
*ped	*	*	*
2ryy]	8EE'\L 8E	4ggg#Xt/	.
*	*clefG2	*	*
.	8e'\ 8g#X	.	.
.	8g#'\ 8b	4bbbt/	.
.	8b'\ 8ee	.	.
!LO:CL:ed	!	!	!
*clefG2	*	*	*
4ryy	8g#'\ 8b	4eeeet/	.
.	8b'\ 8ee	.	.
8gg#X/	8ee'\ 8gg#	4ggg#t/	.
[8ryy	8g#'\J 8b 8ee	.	.
*Xped	*	*	*
!!LO:LB:g=original
*clefF4	*	*	*
=129	=129	=129	=129
*ped	*	*	*
2ryy]	8AA'\L 8A	1aaaT	.
*	*clefG2	*	*
.	8e'\ 8a	.	.
.	8a'\ 8cc	.	.
.	8cc'\ 8ee	.	.
!LO:CL:ed	!	!	!
*clefG2	*	*	*
4ryy	8a'\ 8cc	.	.
.	8cc'\ 8ee	.	.
8aa/	8ee'\ 8aa	.	.
[8ryy	8a'\J 8cc 8ee	.	.
*Xped	*	*	*
*clefF4	*	*	*
=130	=130	=130	=130
*ped	*	*	*
2ryy]	8EE'\L 8E	4ggg#Xt/	.
*	*clefG2	*	*
.	8e'\ 8g#X	.	.
.	8g#'\ 8b	4bbbt/	.
.	8b'\ 8ee	.	.
!LO:CL:ed	!	!	!
*clefG2	*	*	*
4ryy	8g#'\ 8b	4eeeet/	.
.	8b'\ 8ee	.	.
8gg#X/	8ee'\ 8gg#	4ggg#t/	.
[8ryy	8g#'\J 8b 8ee	.	.
*Xped	*	*	*
*clefF4	*	*	*
=131	=131	=131	=131
*ped	*	*	*
2ryy]	8AA'\L 8A	4aaaT/	.
*	*clefG2	*	*
.	8e'\ 8a	.	.
.	8a'\ 8cc	4bbbt/	.
.	8cc'\ 8ee	.	.
!LO:CL:ed	!	!	!
*clefG2	*	*	*
4ryy	8a'\ 8cc	4ccccT/	.
.	8cc'\ 8ee	.	.
8aa/	8ee'\ 8aa	8bbbt/L	.
[8ryy	8a'\J 8cc 8ee	8aaaT/J	.
*Xped	*	*	*
!!LO:LB:g=original
*clefF4	*	*	*
=132	=132	=132	=132
*ped	*	*	*
2ryy]	8EE'\L 8E	4ggg#Xt/	.
*	*clefG2	*	*
.	8e'\ 8g#X	.	.
.	8g#'\ 8b	4bbbt/	.
.	8b'\ 8ee	.	.
!LO:CL:ed	!	!	!
*clefG2	*	*	*
4ryy	8g#'\ 8b	4.eeeet/	.
.	8b'\ 8ee	.	.
8gg#X/	8ee'\ 8gg#	.	.
[8ryy	8g#'\J 8b 8ee	8ggg#t/	.
*Xped	*	*	*
*clefF4	*	*	*
=133	=133	=133	=133
*ped	*	*	*
2ryy]	8AA'\L 8A	1aaaT	.
*	*clefG2	*	*
.	8e'\ 8a	.	.
.	8a'\ 8cc	.	.
.	8cc'\ 8ee	.	.
!LO:CL:ed	!	!	!
*clefG2	*	*	*
4ryy	8a'\ 8cc	.	.
.	8cc'\ 8ee	.	.
8aa/	8ee'\ 8aa	.	.
[8ryy	8a'\J 8cc 8ee	.	.
*Xped	*	*	*
*clefF4	*	*	*
=134	=134	=134	=134
*ped	*	*	*
2ryy]	8EE'\L 8E	4ggg#Xt/	.
*	*clefG2	*	*
.	8e'\ 8g#X	.	.
.	8g#'\ 8b	4bbbt/	.
.	8b'\ 8ee	.	.
!LO:CL:ed	!	!	!
*clefG2	*	*	*
4ryy	8g#'\ 8b	4eeeet/	.
.	8b'\ 8ee	.	.
8gg#X/	8ee'\ 8gg#	4ggg#t/	.
[8ryy	8g#'\J 8b 8ee	.	.
*Xped	*	*	*
!!LO:LB:g=original
*clefF4	*	*	*
=135	=135	=135	=135
*ped	*	*	*
2ryy]	8AA'\L 8A	4aaaT/	.
*	*clefG2	*	*
.	8e'\ 8a	.	.
.	8a'\ 8cc	4bbbt/	.
.	8cc'\ 8ee	.	.
!LO:CL:ed	!	!	!
*clefG2	*	*	*
4ryy	8a'\ 8cc	4ccccT/	.
.	8cc'\ 8ee	.	.
8aa/	8ee'\ 8aa	8bbbt/L	.
[8ryy	8a'\J 8cc 8ee	8aaaT/J	.
*Xped	*	*	*
*clefF4	*	*	*
=136	=136	=136	=136
*ped	*	*	*
2ryy]	8EE'\L 8E	4ggg#Xt/	.
*	*clefG2	*	*
.	8e'\ 8g#X	.	.
.	8g#'\ 8b	4bbbt/	.
.	8b'\ 8ee	.	.
!LO:CL:ed	!	!	!
*clefG2	*	*	*
4ryy	8g#'\ 8b	4.eeeet/	.
.	8b'\ 8ee	.	.
8gg#X/	8ee'\ 8gg#	.	.
8ryy	8g#'\J 8b 8ee	8ggg#t/	.
*v	*v	*	*
*Xped	*	*
*clefF4	*	*
=137	=137	=137
*ped	*	*
(8AA'\L 8A	1aaaT	.
8A\	.	.
!LO:TX:a:i:t=poco e poco diminuedno e rallen&colon;:dur=1w3q:ext=s:problem	!	!
8c\	.	.
8e\	.	.
*clefG2	*	*
8a\	.	.
8c\	.	.
8e\	.	.
8a\J	.	.
*Xped	*	*
!!LO:LB:g=original
=138	=138	=138
*ped	*	*
8cc\L	1aaaT	.
8g\	.	.
8a\	.	.
8cc\	.	.
8ee\	.	.
8a\	.	.
8cc\	.	.
8ee\J	.	.
=139	=139	=139
8aa\L	1aaaT	.
8cc\	.	.
8ee\	.	.
8aa\	.	.
8ccc\	.	.
8ee\	.	.
8aa\	.	.
8ccc\J	.	.
=140	=140	=140
8eee\L	2aaaT/	.
8aa\	.	.
8ccc\)	.	.
8eee\J	.	.
.	8qaaa/	.
*Xped	*	*
4aaa\	4aaaa\	.
4r	4r	.
*	*X8va	*
==	==	==
*-	*-	*-
!!!RDF**kern: > = above
!!!RDF**kern: < = below
!!!system-decoration: [(s1,s2)]
!!!ENC: Solarz Mateusz
!!!END: 2022-07-30
!!!ENC: Urszula ÅšwiÄ…tek
!!!END: 2022-08-27
!!!YEC: Copyright 2022 Narodowy Instytut Fryderyka Chopina (https://polishscores.org)
!!!YEM: License CC-BY-4.0 (https://creativecommons.org/licenses/by/4.0)
